X:1
T: Maid on the Green
C:
R:Jig
Q:180
K:G
M:6/8
L:1/16
d2|g2f2g2 e4d2|B2e2e2 d2B2A2|B2G2G2 d2B2G2|F2B2A2 A4f2|
g2f2g2 e4d2|B2e2e2 d2B2G2|B2d2d2 d2B2G2|B2A2G2 G4|
d2|:g2f2g2 a2f2d2|g2f2g2 a4a2|b2g2a2 a2f2f2|g2f2a2 g4a2|
b2g2g2 a2f2f2|g2f2g2 e4d2|B2e2e2 d2B2G2|B2G2G2 G2B2d2:|
d2|g2f2g2 e4d2|B2e2e2 d2B2A2|B2G2G2 d2B2G2|F2B2A2 A4f2|
g2f2g2 e4d2|B2e2e2 d2B2G2|B2d2d2 d2B2G2|B2A2G2 G4||
